src/assets/images/near.svg

<svg height="90" viewBox="0 0 342 90" width="342" xmlns="http://www.w3.org/2000/svg"><g fill="#515050"><path d="m171.21 18.750188v52.5c-.005386.411962-.338038.7446141-.75.75h-5.46c-2.54654.0019837-4.919633-1.2900333-6.3-3.43l-24.78-38.3.85 19.13v21.85c-.005386.411962-.338038.7446141-.75.75h-7.22c-.411962-.0053859-.744614-.338038-.75-.75v-52.5c.005386-.4119621.338038-.7446142.75-.75h5.43c2.543204.0013525 4.913413 1.2880371 6.3 3.42l24.78 38.24-.77-19.06v-21.85c0-.4142136.335786-.75.75-.75h7.22c.392326.0310501.696048.3564673.7.75z"/><path d="m245 72.0003072h-7.64c-.242219-.0024107-.468419-.1215463-.607329-.3199889-.13891-.1984427-.173425-.4517574-.092671-.6801303l20.24-52.28c.177416-.4485486.617934-.7368878 1.1-.72h9.57c.463896.0039994.879102.2887118 1.05.72l20.18 52.28c.080754.2283729.046239.4816876-.092671.6801303-.13891.1984426-.36511.3175782-.607329.3199889h-7.64c-.312915.0013037-.594718-.1892108-.71-.4801192l-16.31-43c-.107656-.2966134-.389454-.4941192-.705-.4941192s-.597344.1975058-.705.4941192l-16.31 43c-.116593.2943502-.403449.4855872-.72.4801192z"/><path d="m341.84 70.790188-15.18-19.39c8.57-1.62 13.58-7.4 13.58-16.27 0-10.19-6.63-17.13-18.36-17.13h-21.17c-.618559 0-1.12.501441-1.12 1.12 0 3.9764502 3.22355 7.2 7.2 7.2h14.21c7.09 0 10.49 3.63 10.49 8.87s-3.32 9-10.49 9h-20.29c-.620173.0054884-1.12.5098027-1.12 1.13v26c0 .4142135.335786.75.75.75h7.22c.411962-.0053859.744614-.338038.75-.75v-19.45h8.33l13.17 17.19c1.429901 1.8647186 3.650185 2.9526577 6 2.94h5.48c.278712-.0154365.525791-.1843814.6413-.4385002.115508-.2541187.080332-.5513615-.0913-.7714998z"/><path d="m222.17 18.000188h-33.5c-.552285 0-1 .4477152-1 1 0 4.0482472 3.281753 7.3300686 7.33 7.3300686h27.17c.199733.0026492.392082-.0754954.533328-.2167411.141245-.1412458.21939-.3335944.216741-.5333275v-6.83c0-.4142136-.335855-.75-.750069-.75zm0 45.67h-25c-.411962-.0053859-.744614-.338038-.75-.75v-13.54c0-.4142136.335786-.75.75-.75h23.11c.414214 0 .75-.3357865.75-.75v-6.88c0-.4142136-.335786-.75-.75-.75h-31.49c-.620173.0054884-1.12.5098027-1.12 1.13v29.46c0 .2970424.118.5819188.32804.7919596.210041.2100407.494918.3280404.79196.3280404h33.38c.414214 0 .75-.3357865.75-.75v-6.83c-.016222-.4008354-.348878-.7157493-.75-.71z"/><path d="m72.24 4.57018796-18.82 27.93000004c-.6326556.8363019-.5119456 2.0192463.2765878 2.7105272s1.977101.6561367 2.7234122-.0805272l18.52-16c.2182596-.2001508.5348271-.2509055.8047183-.1290192.2698913.1218864.4411264.3929391.4352817.6890192v50.29c-.0030849.3126548-.199811.5905926-.4936562.6974454s-.6231501.020199-.8263438-.2174454l-56-67.00000004c-1.8096501-2.17729593-4.4888897-3.44371246-7.32-3.46018796h-1.95c-5.29641075 0-9.59 4.29377721-9.59 9.59018796v70.82000004c0 5.2964107 4.29358925 9.59 9.59 9.59 3.3323673 0 6.4256326-1.7306596 8.17-4.57l18.82-27.93c.6326556-.836302.5119456-2.0192463-.2765878-2.7105273-.7885334-.6912809-1.977101-.6561367-2.7234122.0805273l-18.52 16c-.2182596.2001507-.5348271.2509054-.8047183.1290191-.2698913-.1218864-.4411264-.3929391-.4352817-.6890191v-50.24c.0030849-.3126548.199811-.5905927.4936562-.6974455s.6231501-.020199.8263438.2174455l56 67c1.8233309 2.1575852 4.5051624 3.4015453 7.33 3.4h2c2.5434261 0 4.9826802-1.0103721 6.781154-2.808846 1.7984739-1.7984739 2.808846-4.2377279 2.808846-6.781154v-70.81000004c0-2.55385602-1.0185542-5.00224709-2.8300259-6.8024557-1.8114716-1.80020861-4.2661681-2.80352254-6.8199741-2.78773226-3.3323673 0-6.4256326 1.73084752-8.17 4.57018796z"/></g></svg>

<?xml version="1.0" encoding="UTF-8"?>
<svg width="342px" height="90px" viewBox="0 0 342 90" version="1.1" xmlns="http://www.w3.org/2000/svg" xmlns:xlink="http://www.w3.org/1999/xlink">
    <title>near_logo</title>
    <g id="Page-1" stroke="none" stroke-width="1" fill="none" fill-rule="evenodd">
        <g id="near_logo" fill="#515050" fill-rule="nonzero">
            <path d="M171.21,18.750188 L171.21,71.250188 C171.204614,71.66215 170.871962,71.9948021 170.46,72.000188 L165,72.000188 C162.45346,72.0021717 160.080367,70.7101547 158.7,68.570188 L133.92,30.270188 L134.77,49.400188 L134.77,71.250188 C134.764614,71.66215 134.431962,71.9948021 134.02,72.000188 L126.8,72.000188 C126.388038,71.9948021 126.055386,71.66215 126.05,71.250188 L126.05,18.750188 C126.055386,18.3382259 126.388038,18.0055738 126.8,18.000188 L132.23,18.000188 C134.773204,18.0015405 137.143413,19.2882251 138.53,21.420188 L163.31,59.660188 L162.54,40.600188 L162.54,18.750188 C162.54,18.3359744 162.875786,18.000188 163.29,18.000188 L170.51,18.000188 C170.902326,18.0312381 171.206048,18.3566553 171.21,18.750188 L171.21,18.750188 Z" id="Path"></path>
            <path d="M245,72.0003072 L237.36,72.0003072 C237.117781,71.9978965 236.891581,71.8787609 236.752671,71.6803183 C236.613761,71.4818756 236.579246,71.2285609 236.66,71.000188 L256.9,18.720188 C257.077416,18.2716394 257.517934,17.9833002 258,18.000188 L267.57,18.000188 C268.033896,18.0041874 268.449102,18.2888998 268.62,18.720188 L288.8,71.000188 C288.880754,71.2285609 288.846239,71.4818756 288.707329,71.6803183 C288.568419,71.8787609 288.342219,71.9978965 288.1,72.0003072 L280.46,72.0003072 C280.147085,72.0016109 279.865282,71.8110964 279.75,71.520188 L263.44,28.520188 C263.332344,28.2235746 263.050546,28.0260688 262.735,28.0260688 C262.419454,28.0260688 262.137656,28.2235746 262.03,28.520188 L245.72,71.520188 C245.603407,71.8145382 245.316551,72.0057752 245,72.0003072 Z" id="Path"></path>
            <path d="M341.84,70.790188 L326.66,51.400188 C335.23,49.780188 340.24,44.000188 340.24,35.130188 C340.24,24.940188 333.61,18.000188 321.88,18.000188 L300.71,18.000188 C300.091441,18.000188 299.59,18.501629 299.59,19.120188 L299.59,19.120188 C299.59,23.0966382 302.81355,26.320188 306.79,26.320188 L321,26.320188 C328.09,26.320188 331.49,29.950188 331.49,35.190188 C331.49,40.430188 328.17,44.190188 321,44.190188 L300.71,44.190188 C300.089827,44.1956764 299.59,44.6999907 299.59,45.320188 L299.59,71.320188 C299.59,71.7344015 299.925786,72.070188 300.34,72.070188 L307.56,72.070188 C307.971962,72.0648021 308.304614,71.73215 308.31,71.320188 L308.31,51.870188 L316.64,51.870188 L329.81,69.060188 C331.239901,70.9249066 333.460185,72.0128457 335.81,72.000188 L341.29,72.000188 C341.568712,71.9847515 341.815791,71.8158066 341.9313,71.5616878 C342.046808,71.3075691 342.011632,71.0103263 341.84,70.790188 L341.84,70.790188 Z" id="Path"></path>
            <path d="M222.17,18.000188 L188.67,18.000188 C188.117715,18.000188 187.67,18.4479032 187.67,19.000188 L187.67,19.000188 C187.67,23.0484352 190.951753,26.3302566 195,26.3302566 L222.17,26.3302566 C222.369733,26.3329058 222.562082,26.2547612 222.703328,26.1135155 C222.844573,25.9722697 222.922718,25.7799211 222.920069,25.580188 L222.920069,18.750188 C222.920069,18.3359744 222.584214,18.000188 222.17,18.000188 Z M222.17,63.670188 L197.17,63.670188 C196.758038,63.6648021 196.425386,63.33215 196.42,62.920188 L196.42,49.380188 C196.42,48.9659744 196.755786,48.630188 197.17,48.630188 L220.28,48.630188 C220.694214,48.630188 221.03,48.2944015 221.03,47.880188 L221.03,41.000188 C221.03,40.5859744 220.694214,40.250188 220.28,40.250188 L188.79,40.250188 C188.169827,40.2556764 187.67,40.7599907 187.67,41.380188 L187.67,70.840188 C187.67,71.1372304 187.788,71.4221068 187.99804,71.6321476 C188.208081,71.8421883 188.492958,71.960188 188.79,71.960188 L222.17,71.960188 C222.584214,71.960188 222.92,71.6244015 222.92,71.210188 L222.92,64.380188 C222.903778,63.9793526 222.571122,63.6644387 222.17,63.670188 Z" id="Shape"></path>
            <path d="M72.24,4.57018796 L53.42,32.500188 C52.7873444,33.3364899 52.9080544,34.5194343 53.6965878,35.2107152 C54.4851212,35.9019961 55.6736888,35.8668519 56.42,35.130188 L74.94,19.130188 C75.1582596,18.9300372 75.4748271,18.8792825 75.7447183,19.0011688 C76.0146096,19.1230552 76.1858447,19.3941079 76.18,19.690188 L76.18,69.980188 C76.1769151,70.2928428 75.980189,70.5707806 75.6863438,70.6776334 C75.3924986,70.7844862 75.0631937,70.6978324 74.86,70.460188 L18.86,3.46018796 C17.0503499,1.28289203 14.3711103,0.0164754958 11.54,0 L9.59,0 C4.29358925,0 0,4.29377721 0,9.59018796 L0,80.410188 C0,85.7065987 4.29358925,90.000188 9.59,90.000188 L9.59,90.000188 C12.9223673,90.000188 16.0156326,88.2695284 17.76,85.430188 L36.58,57.500188 C37.2126556,56.663886 37.0919456,55.4809417 36.3034122,54.7896607 C35.5148788,54.0983798 34.3263112,54.133524 33.58,54.870188 L15.06,70.870188 C14.8417404,71.0703387 14.5251729,71.1210934 14.2552817,70.9992071 C13.9853904,70.8773207 13.8141553,70.606268 13.82,70.310188 L13.82,20.070188 C13.8230849,19.7575332 14.019811,19.4795953 14.3136562,19.3727425 C14.6075014,19.2658897 14.9368063,19.3525435 15.14,19.590188 L71.14,86.590188 C72.9633309,88.7477732 75.6451624,89.9917333 78.47,89.990188 L80.47,89.990188 C83.0134261,89.990188 85.4526802,88.9798159 87.251154,87.181342 C89.0496279,85.3828681 90.06,82.9436141 90.06,80.400188 L90.06,9.59018796 C90.06,7.03633194 89.0414458,4.58794087 87.2299741,2.78773226 C85.4185025,0.98752365 82.963806,-0.0157902833 80.41,0 L80.41,0 C77.0776327,0 73.9843674,1.73084752 72.24,4.57018796 Z" id="Path"></path>
        </g>
    </g>
</svg>
